X: 443
T: I'm a man you don't meet every day solo
T: (abc by Comyn)
M: 6/8
L: 1/8
R: reel
K: G
f3f3 fef | g3 f3 f3 | fed d2 d/2c/2 |
B B/2A/2 G AG A | Bd B c2 d/2e/2 |
 dB GA GA | Bc B A3 ||
